X:3803
T:Danza (CT 103)
R:Danza
C:Tradicional
S:Música Tradicional Asturiana, (C) Tello & Tito. Asturies, 2001.
S:http://pagina.de/MusTradAst <telloytito@asturies.org>
N:Danza, transcrita en Llamo, ayuntamiento de Riosa.
N:Intervienen en esta danza solamente mujeres.
N:Como queda dicho en la nota referente a la canción CT 081, esta danza es considerada por las gentes de Riosa como la más antigua de todas las que se cantan en el concejo.
O:Llamo (Riosa)
A:Asturies
Z:Cancioneru de Torner 103
M:6/8
L:1/8
Q:3/8=80
W:Si me quieres di que sí (bis)
W:y si no di que me vaya (bis)
W:no me tengas al sereno,
W:que no soi cántaro de agua.
K:C
B|BcA G2A|G3- G2B|BcA G2A|B3- B2d|
dcd c2B|A2G- G z B|BcA G2A|G2G- G2B|
BcA G2A|B2B- B2d|ded c2B|A2G- G z||


